icons/lines/pause-circle.svg

<svg xmlns="http://www.w3.org/2000/svg" width="24" height="24" viewBox="0 0 24 24" fill="none" stroke="currentColor" stroke-width="2" stroke-linecap="round" stroke-linejoin="round" >
  <path d="M11.9702 22C17.4931 22 21.9702 17.5228 21.9702 12C21.9702 6.47715 17.4931 2 11.9702 2C6.44737 2 1.97021 6.47715 1.97021 12C1.97021 17.5228 6.44737 22 11.9702 22Z"/>
  <path d="M10.72 14.53V9.46999C10.72 8.98999 10.52 8.79999 10.01 8.79999H8.71C8.2 8.79999 8 8.98999 8 9.46999V14.53C8 15.01 8.2 15.2 8.71 15.2H10C10.52 15.2 10.72 15.01 10.72 14.53Z"/>
  <path d="M16 14.53V9.46999C16 8.98999 15.8 8.79999 15.29 8.79999H14C13.49 8.79999 13.29 8.98999 13.29 9.46999V14.53C13.29 15.01 13.49 15.2 14 15.2H15.29C15.8 15.2 16 15.01 16 14.53Z"/>
  </svg>

<svg xmlns="http://www.w3.org/2000/svg" width="24" height="24" viewBox="0 0 24 24" fill="none" stroke="currentColor" stroke-width="2" stroke-linecap="round" stroke-linejoin="round">
  <path d="M10.72 9.47c0-.48-.2-.67-.71-.67h-1.3c-.51 0-.71.19-.71.67v5.06c0 .48.2.67.71.67H10c.52 0 .72-.19.72-.67z" />
  <path d="M16 9.47c0-.48-.2-.67-.71-.67H14c-.51 0-.71.19-.71.67v5.06c0 .48.2.67.71.67h1.29c.51 0 .71-.19.71-.67z" />
  <circle cx="11.97" cy="12" r="10" />
</svg>
